Papirus/64x64/apps/libreoffice-impress.svg

<?xml version="1.0" encoding="UTF-8" standalone="no"?>
<!-- Created with Inkscape (http://www.inkscape.org/) -->

<svg
   width="64"
   height="64"
   viewBox="0 0 64 64"
   version="1.1"
   id="svg5"
   inkscape:version="1.2.2 (1:1.2.2+202305151914+b0a8486541)"
   sodipodi:docname="libreoffice-impress.svg"
   xmlns:inkscape="http://www.inkscape.org/namespaces/inkscape"
   xmlns:sodipodi="http://sodipodi.sourceforge.net/DTD/sodipodi-0.dtd"
   xmlns="http://www.w3.org/2000/svg"
   xmlns:svg="http://www.w3.org/2000/svg">
  <sodipodi:namedview
     id="namedview7"
     pagecolor="#ffffff"
     bordercolor="#000000"
     borderopacity="0.25"
     inkscape:showpageshadow="2"
     inkscape:pageopacity="0.0"
     inkscape:pagecheckerboard="0"
     inkscape:deskcolor="#d1d1d1"
     inkscape:document-units="px"
     showgrid="false"
     inkscape:zoom="12.96875"
     inkscape:cx="32"
     inkscape:cy="32"
     inkscape:window-width="1920"
     inkscape:window-height="1008"
     inkscape:window-x="0"
     inkscape:window-y="0"
     inkscape:window-maximized="1"
     inkscape:current-layer="svg5" />
  <defs
     id="defs2" />
  <path
     d="M 42,5 H 54 V 17 Z M 18,5 h 20 l 16,16 v 32 c 0,4.432 -3.568,8 -8,8 H 18 c -4.432,0 -8,-3.568 -8,-8 V 13 c 0,-4.432 3.568,-8 8,-8 z"
     style="opacity:0.2;fill:#000000;stroke-width:1;stroke-linecap:square"
     id="path1115"
     sodipodi:nodetypes="ccccsccssssss" />
  <path
     d="m 18,4 h 20 l 16,16 v 32 c 0,4.432 -3.568,8 -8,8 H 18 c -4.432,0 -8,-3.568 -8,-8 V 12 c 0,-4.432 3.568,-8 8,-8 z"
     style="opacity:1;fill:#e96412;fill-opacity:1;stroke-width:1;stroke-linecap:square"
     id="path1004" />
  <path
     d="M 42,4 H 54 V 16 Z"
     style="fill:#c65510;fill-opacity:1;stroke-width:0.75;stroke-linecap:square"
     id="path1087" />
  <path
     d="m 17,25 c -0.55399,0 -1,0.446 -1,1 0,0.554 0.44601,1 1,1 h 30 c 0.554,0 1,-0.446 1,-1 0,-0.554 -0.446,-1 -1,-1 z m 4,4 c -0.55399,0 -1,0.446 -1,1 0,0.554 0.44601,1 1,1 h 22 c 0.554,0 1,-0.446 1,-1 0,-0.554 -0.446,-1 -1,-1 z m -4,8 c -0.55228,0 -1,0.44772 -1,1 0,0.55228 0.44772,1 1,1 0.55228,0 1,-0.44772 1,-1 0,-0.55228 -0.44772,-1 -1,-1 z m 4,0 c -0.55399,0 -1,0.446 -1,1 0,0.554 0.44601,1 1,1 h 8 c 0.554,0 1,-0.446 1,-1 0,-0.554 -0.446,-1 -1,-1 z m 13,0 c -1.108,0 -2,0.892 -2,2 v 8 c 0,1.108 0.892,2 2,2 h 12 c 1.108,0 2,-0.892 2,-2 v -8 c 0,-1.108 -0.892,-2 -2,-2 z m -17,4 c -0.55228,0 -1,0.44772 -1,1 0,0.55228 0.44772,1 1,1 0.55228,0 1,-0.44772 1,-1 0,-0.55228 -0.44772,-1 -1,-1 z m 4,0 c -0.55399,0 -1,0.446 -1,1 0,0.554 0.44601,1 1,1 h 8 c 0.554,0 1,-0.446 1,-1 0,-0.554 -0.446,-1 -1,-1 z m -4,4 c -0.55228,0 -1,0.44772 -1,1 0,0.55228 0.44772,1 1,1 0.55228,0 1,-0.44772 1,-1 0,-0.55228 -0.44772,-1 -1,-1 z m 4,0 c -0.55399,0 -1,0.446 -1,1 0,0.554 0.44601,1 1,1 h 8 c 0.554,0 1,-0.446 1,-1 0,-0.554 -0.446,-1 -1,-1 z"
     style="opacity:0.2;fill:#000000;fill-opacity:1;stroke-width:4.58258;stroke-linecap:round;stroke-linejoin:round"
     id="path416" />
  <path
     d="m 17,24 c -0.554,0 -1,0.446 -1,1 0,0.554 0.446,1 1,1 h 30 c 0.554,0 1,-0.446 1,-1 0,-0.554 -0.446,-1 -1,-1 z m 4,4 c -0.554,0 -1,0.446 -1,1 0,0.554 0.446,1 1,1 h 22 c 0.554,0 1,-0.446 1,-1 0,-0.554 -0.446,-1 -1,-1 z m -4,8 c -0.55228,0 -1,0.44772 -1,1 0,0.55228 0.44772,1 1,1 0.55228,0 1,-0.44772 1,-1 0,-0.55228 -0.44772,-1 -1,-1 z m 4,0 c -0.554,0 -1,0.446 -1,1 0,0.554 0.446,1 1,1 h 8 c 0.554,0 1,-0.446 1,-1 0,-0.554 -0.446,-1 -1,-1 z m -4,4 c -0.55228,0 -1,0.44772 -1,1 0,0.55228 0.44772,1 1,1 0.55228,0 1,-0.44772 1,-1 0,-0.55228 -0.44772,-1 -1,-1 z m 4,0 c -0.554,0 -1,0.446 -1,1 0,0.554 0.446,1 1,1 h 8 c 0.554,0 1,-0.446 1,-1 0,-0.554 -0.446,-1 -1,-1 z m -4,4 c -0.55228,0 -1,0.44772 -1,1 0,0.55228 0.44772,1 1,1 0.55228,0 1,-0.44772 1,-1 0,-0.55228 -0.44772,-1 -1,-1 z m 4,0 c -0.554,0 -1,0.446 -1,1 0,0.554 0.446,1 1,1 h 8 c 0.554,0 1,-0.446 1,-1 0,-0.554 -0.446,-1 -1,-1 z"
     style="fill:#ffffff;stroke-width:1.99999;stroke-linecap:round;stroke-linejoin:round"
     id="path444" />
  <rect
     style="fill:#f7c195;fill-opacity:1;stroke-linecap:square"
     id="rect516"
     width="16"
     height="12"
     x="32"
     y="36"
     ry="2" />
  <path
     d="M 45.625,38.21887 C 45.19361,37.87342 44.56379,37.9434 44.21875,38.37512 L 41.36321,42 39.14836,40.15234 c -0.42021,-0.35073 -1.04431,-0.29851 -1.40039,0.11719 l -3.50774,4.08039 c -0.35927,0.41958 -0.3103,1.05099 0.10938,1.41016 0.41958,0.35927 1.05099,0.3103 1.41016,-0.10938 l 2.86516,-3.33039 2.24218,1.86914 c 0.43018,0.35931 1.07161,0.29499 1.42188,-0.14258 l 3.49226,-4.42175 c 0.34546,-0.43139 0.27548,-1.06121 -0.15625,-1.40625 z"
     style="color:#000000;fill:#e35100;fill-opacity:1;stroke-linecap:round;stroke-linejoin:round;-inkscape-stroke:none"
     id="path1285" />
  <path
     id="path2508"
     style="opacity:0.2;fill:#ffffff;stroke-width:1;stroke-linecap:square"
     d="m 18,4 c -4.431992,0 -8,3.5680092 -8,8 v 1 C 10,8.5680092 13.56801,5 18,5 H 39 L 38,4 Z m 24,0 1,1 H 54 V 4 Z" />
</svg>

<svg xmlns="http://www.w3.org/2000/svg" width="64" height="64" version="1.1">
 <path style="opacity:0.2" d="M 18,5 H 38 L 54,21 V 53 C 54,57.432 50.432,61 46,61 H 18 C 13.568,61 10,57.432 10,53 V 13 C 10,8.568 13.568,5 18,5 Z"/>
 <path style="fill:#e96412" d="m 18,4 h 20 l 16,16 v 32 c 0,4.432 -3.568,8 -8,8 H 18 c -4.432,0 -8,-3.568 -8,-8 V 12 c 0,-4.432 3.568,-8 8,-8 z"/>
 <g style="opacity:0.2" transform="translate(0,1)">
  <rect width="32" height="2" x="16" y="24" rx="1" ry="1"/>
  <rect width="24" height="2" x="20" y="28" rx="1" ry="1"/>
  <rect width="10" height="2" x="20" y="36" rx="1" ry="1"/>
  <rect width="10" height="2" x="20" y="40" rx="1" ry="1"/>
  <rect width="10" height="2" x="20" y="44" rx="1" ry="1"/>
  <circle cx="17" cy="37" r="1"/>
  <circle cx="17" cy="41" r="1"/>
  <circle cx="17" cy="45" r="1"/>
  <rect width="16" height="12" x="32" y="36" ry="2"/>
 </g>
 <g>
  <rect style="fill:#ffffff" width="32" height="2" x="16" y="24" rx="1" ry="1"/>
  <rect style="fill:#ffffff" width="24" height="2" x="20" y="28" rx="1" ry="1"/>
  <rect style="fill:#ffffff" width="10" height="2" x="20" y="36" rx="1" ry="1"/>
  <rect style="fill:#ffffff" width="10" height="2" x="20" y="40" rx="1" ry="1"/>
  <rect style="fill:#ffffff" width="10" height="2" x="20" y="44" rx="1" ry="1"/>
  <circle style="fill:#ffffff" cx="17" cy="37" r="1"/>
  <circle style="fill:#ffffff" cx="17" cy="41" r="1"/>
  <circle style="fill:#ffffff" cx="17" cy="45" r="1"/>
 </g>
 <path style="fill:#c65510" d="M 42,4 H 54 V 16 Z"/>
 <rect style="fill:#f7c195" width="16" height="12" x="32" y="36" ry="2"/>
 <path style="opacity:0.2;fill:#ffffff" d="M 42,4 43,5 H 54 V 4 Z"/>
 <path style="opacity:0.2;fill:#ffffff" d="M 18 4 C 13.568 4 10 7.568 10 12 L 10 13 C 10 8.568 13.568 5 18 5 L 38 5 L 54 21 L 54 20 L 38 4 L 18 4 z"/>
 <path style="fill:none;stroke:#e35100;stroke-width:2;stroke-linecap:round;stroke-linejoin:round" d="M 35,45 38.5,41 41.5,43.5 45,39"/>
</svg>
